X: 1
T: Replacement, The
M: 4/4
L: 1/8
R: reel
K: Dmaj
dAAd BAFB | AFFD E2DE | FAAA GBBB | Agfd e2dB |
dAAd BAFB | AFFD E2DE | FAAA GBdB | Addc d4 :|
Adfa Agfe | defd B2AG | FAAA GBBB | Adfd e2dB |
Adfa Agfe | defd B2AG | FAAA GBdB | Addc d4 :|
